src/svgs/data.svg

<?xml version="1.0" encoding="UTF-8" standalone="no"?>
<!-- Created with Inkscape (http://www.inkscape.org/) -->

<svg
   xmlns:dc="http://purl.org/dc/elements/1.1/"
   xmlns:cc="http://creativecommons.org/ns#"
   xmlns:rdf="http://www.w3.org/1999/02/22-rdf-syntax-ns#"
   xmlns:svg="http://www.w3.org/2000/svg"
   xmlns="http://www.w3.org/2000/svg"
   xmlns:sodipodi="http://sodipodi.sourceforge.net/DTD/sodipodi-0.dtd"
   xmlns:inkscape="http://www.inkscape.org/namespaces/inkscape"
   width="20"
   height="20"
   id="svg5738"
   version="1.1"
   inkscape:version="0.48.5 r10040"
   sodipodi:docname="data.svg">
  <defs
     id="defs5740" />
  <sodipodi:namedview
     id="base"
     pagecolor="#ffffff"
     bordercolor="#666666"
     borderopacity="1.0"
     inkscape:pageopacity="0.0"
     inkscape:pageshadow="2"
     inkscape:zoom="32"
     inkscape:cx="11.89536"
     inkscape:cy="9.6557922"
     inkscape:document-units="px"
     inkscape:current-layer="layer1"
     showgrid="false"
     inkscape:window-width="1390"
     inkscape:window-height="884"
     inkscape:window-x="20"
     inkscape:window-y="20"
     inkscape:window-maximized="0"
     inkscape:object-paths="true"
     inkscape:object-nodes="true"
     inkscape:snap-bbox="true"
     inkscape:snap-to-guides="false"
     inkscape:snap-grids="true"
     inkscape:snap-nodes="true">
    <inkscape:grid
       type="xygrid"
       id="grid5746"
       empspacing="5"
       visible="true"
       enabled="true"
       snapvisiblegridlinesonly="true" />
  </sodipodi:namedview>
  <metadata
     id="metadata5743">
    <rdf:RDF>
      <cc:Work
         rdf:about="">
        <dc:format>image/svg+xml</dc:format>
        <dc:type
           rdf:resource="http://purl.org/dc/dcmitype/StillImage" />
        <dc:title />
      </cc:Work>
    </rdf:RDF>
  </metadata>
  <g
     inkscape:label="Layer 1"
     inkscape:groupmode="layer"
     id="layer1"
     transform="translate(0,-1032.3622)">
    <path
       style="color:#000000;fill:#000000;fill-opacity:1;fill-rule:nonzero;stroke:none;stroke-width:2;marker:none;visibility:visible;display:inline;overflow:visible;enable-background:accumulate"
       d="M 10 4.5 C 7.23 4.5 5 5.392 5 6.5 L 5 7 C 5 8.108 7.23 9 10 9 C 12.77 9 15 8.108 15 7 L 15 6.5 C 15 5.392 12.77 4.5 10 4.5 z M 5.25 9.46875 C 5.081962 9.510825 5 9.6797 5 10 L 5 10.5 C 5 11.608 7.23 12.5 10 12.5 C 12.77 12.5 15 11.608 15 10.5 L 15 10 C 15 9.4242783 14.728806 9.3389298 14.15625 9.625 C 14.101437 9.6575072 14.028128 9.6876508 13.96875 9.71875 C 13.056668 10.196451 11.625431 10.5 10 10.5 C 8.3745686 10.5 6.9433319 10.196451 6.03125 9.71875 C 5.9718718 9.6876508 5.8985634 9.6575072 5.84375 9.625 C 5.5897329 9.4980836 5.3840011 9.4351975 5.25 9.46875 z M 5.25 12.96875 C 5.081962 13.010825 5 13.1797 5 13.5 L 5 14 C 5 15.108 7.23 16 10 16 C 12.77 16 15 15.108 15 14 L 15 13.5 C 15 12.924278 14.728806 12.83893 14.15625 13.125 C 14.101437 13.157507 14.028128 13.187651 13.96875 13.21875 C 13.056668 13.696451 11.625431 14 10 14 C 8.3745686 14 6.9433319 13.696451 6.03125 13.21875 C 5.9718718 13.187651 5.8985634 13.157507 5.84375 13.125 C 5.5897329 12.998084 5.3840011 12.935197 5.25 12.96875 z "
       transform="translate(0,1032.3622)"
       id="path4745" />
  </g>
</svg>

<?xml version="1.0" encoding="UTF-8" standalone="yes"?>
<svg viewBox="0 0 20 20">
  <path d="M10,4.5c-2.8,0-5,0.9-5,2V7c0,1.1,2.2,2,5,2s5-0.9,5-2V6.5C15,5.4,12.8,4.5,10,4.5z M5.2,9.5C5.1,9.5,5,9.7,5,10v0.5
	c0,1.1,2.2,2,5,2s5-0.9,5-2V10c0-0.6-0.3-0.7-0.8-0.4c-0.1,0-0.1,0.1-0.2,0.1c-0.9,0.5-2.3,0.8-4,0.8s-3.1-0.3-4-0.8
	C6,9.7,5.9,9.7,5.8,9.6C5.6,9.5,5.4,9.4,5.2,9.5z M5.2,13C5.1,13,5,13.2,5,13.5V14c0,1.1,2.2,2,5,2s5-0.9,5-2v-0.5
	c0-0.6-0.3-0.7-0.8-0.4c-0.1,0-0.1,0.1-0.2,0.1c-0.9,0.5-2.3,0.8-4,0.8s-3.1-0.3-4-0.8c-0.1,0-0.1-0.1-0.2-0.1
	C5.6,13,5.4,12.9,5.2,13z"/>
</svg>
